public/images/icon6.svg

<svg width="92" height="92" viewBox="0 0 92 92" fill="none" xmlns="http://www.w3.org/2000/svg">
<rect width="92" height="92" rx="24" fill="white"/>
<path d="M54.352 34.389C55.084 35.121 56.27 35.123 57.002 34.389L59.61 31.781C60.341 31.049 60.339 29.863 59.61 29.13L53.027 22.549C52.297 21.817 51.111 21.817 50.379 22.549L47.77 25.157C47.04 25.889 47.04 27.075 47.77 27.805L54.352 34.389Z" fill="url(#paint0_linear_22728_10183)"/>
<path d="M38.766 50.2652C39.497 50.9942 40.683 50.9942 41.414 50.2652L44.023 47.6553C44.755 46.9253 44.755 45.7383 44.023 45.0063L37.44 38.4233C36.709 37.6933 35.523 37.6913 34.791 38.4233L32.183 41.0312C31.451 41.7632 31.453 42.9492 32.183 43.6812L38.766 50.2652Z" fill="url(#paint1_linear_22728_10183)"/>
<path d="M68.648 50.8912L66.001 48.2412C65.267 47.5112 64.084 47.5112 63.353 48.2412L62.192 49.4012L50.987 38.1942L53.414 35.7662L46.681 29.0352L44.253 31.4632L41.161 34.5532L38.787 36.9272L45.519 43.6602L47.896 41.2872L59.099 52.4922L58.051 53.5412C57.319 54.2702 57.317 55.4572 58.051 56.1892L60.698 58.8372C61.432 59.5712 62.617 59.5712 63.348 58.8372L68.647 53.5402C69.38 52.8072 69.38 51.6232 68.648 50.8912Z" fill="url(#paint2_linear_22728_10183)"/>
<path d="M49.077 58.9425C49.077 57.7435 48.105 56.7695 46.904 56.7695H29.936C28.736 56.7695 27.763 57.7435 27.763 58.9425V62.4695H23V69.8585H53.558V62.4695H49.077V58.9425Z" fill="url(#paint3_linear_22728_10183)"/>
<defs>
<linearGradient id="paint0_linear_22728_10183" x1="53.69" y1="22" x2="53.69" y2="34.9388" gradientUnits="userSpaceOnUse">
<stop stop-color="#EF8080"/>
<stop offset="1" stop-color="#F0145A"/>
</linearGradient>
<linearGradient id="paint1_linear_22728_10183" x1="38.1034" y1="37.875" x2="38.1034" y2="50.812" gradientUnits="userSpaceOnUse">
<stop stop-color="#EF8080"/>
<stop offset="1" stop-color="#F0145A"/>
</linearGradient>
<linearGradient id="paint2_linear_22728_10183" x1="53.9919" y1="29.0352" x2="53.9919" y2="59.3877" gradientUnits="userSpaceOnUse">
<stop stop-color="#EF8080"/>
<stop offset="1" stop-color="#F0145A"/>
</linearGradient>
<linearGradient id="paint3_linear_22728_10183" x1="38.279" y1="56.7695" x2="38.279" y2="69.8585" gradientUnits="userSpaceOnUse">
<stop stop-color="#EF8080"/>
<stop offset="1" stop-color="#F0145A"/>
</linearGradient>
</defs>
</svg>

<svg width="92" height="92" fill="none" xmlns="http://www.w3.org/2000/svg"><rect width="92" height="92" rx="24" fill="#fff"/><path d="M54.352 34.389a1.872 1.872 0 002.65 0l2.608-2.608a1.878 1.878 0 000-2.651l-6.583-6.581a1.871 1.871 0 00-2.648 0l-2.609 2.608a1.875 1.875 0 000 2.648l6.582 6.584z" fill="url(#paint0_linear_22728_10183)"/><path d="M38.766 50.265a1.876 1.876 0 002.648 0l2.609-2.61a1.872 1.872 0 000-2.649l-6.583-6.583a1.874 1.874 0 00-2.649 0l-2.608 2.608a1.875 1.875 0 000 2.65l6.583 6.584z" fill="url(#paint1_linear_22728_10183)"/><path d="M68.648 50.891l-2.647-2.65a1.875 1.875 0 00-2.648 0l-1.161 1.16-11.205-11.207 2.427-2.428-6.733-6.73-2.428 2.427-3.092 3.09-2.374 2.374 6.732 6.733 2.377-2.373 11.203 11.205-1.048 1.05a1.87 1.87 0 000 2.647l2.647 2.648a1.87 1.87 0 002.65 0l5.299-5.297a1.871 1.871 0 00.001-2.649z" fill="url(#paint2_linear_22728_10183)"/><path d="M49.077 58.943a2.173 2.173 0 00-2.173-2.173H29.936c-1.2 0-2.173.973-2.173 2.172v3.527H23v7.39h30.558v-7.39h-4.481v-3.526z" fill="url(#paint3_linear_22728_10183)"/><defs><linearGradient id="paint0_linear_22728_10183" x1="53.69" y1="22" x2="53.69" y2="34.939" gradientUnits="userSpaceOnUse"><stop stop-color="#EF8080"/><stop offset="1" stop-color="#F0145A"/></linearGradient><linearGradient id="paint1_linear_22728_10183" x1="38.103" y1="37.875" x2="38.103" y2="50.812" gradientUnits="userSpaceOnUse"><stop stop-color="#EF8080"/><stop offset="1" stop-color="#F0145A"/></linearGradient><linearGradient id="paint2_linear_22728_10183" x1="53.992" y1="29.035" x2="53.992" y2="59.388" gradientUnits="userSpaceOnUse"><stop stop-color="#EF8080"/><stop offset="1" stop-color="#F0145A"/></linearGradient><linearGradient id="paint3_linear_22728_10183" x1="38.279" y1="56.77" x2="38.279" y2="69.859" gradientUnits="userSpaceOnUse"><stop stop-color="#EF8080"/><stop offset="1" stop-color="#F0145A"/></linearGradient></defs></svg>
